X:043
T:a Life on the Ocean Wave
M:6/8
L:1/8
K:G
|: D | GGG G2 A | B3 -BGA | BBB c2 B | A3 -A2 F | 
D2 E F2 G | c3 -c2d | e2 d | cBA G2 :|| 
D | E2 F G2 A | B3 -B2 D | E2 F G2 A | B3 -B2 B | 
BBB B2 B | BBB B2 B | BBB BAB | c3 -c2 D | 
GGG G2 A | B3 -BGA | BBB c2 B | A3 -A2 F | 
D2 E F2 G | c3 -c2d | e2 d | cBA  G2 || 

